img/partners/img-6.svg

<svg width="213" height="51" viewBox="0 0 213 51" fill="none" xmlns="http://www.w3.org/2000/svg">
<g clip-path="url(#clip0_400_5355)">
<path fill-rule="evenodd" clip-rule="evenodd" d="M105.576 -0.000239929C103.784 0.0138674 101.855 0.533823 101.164 2.09369C100.884 2.67745 100.777 3.32892 100.855 3.97153C100.933 4.61414 101.193 5.22118 101.604 5.72129C102.506 6.82569 104.058 7.37789 105.671 7.37789C106.752 7.36502 107.815 7.1022 108.777 6.61005C109.169 6.38001 109.513 6.07448 109.786 5.71115C110.06 5.34781 110.259 4.93387 110.372 4.49327C110.484 4.05267 110.508 3.59414 110.442 3.14421C110.377 2.69428 110.222 2.26188 109.988 1.872C109.241 0.572114 107.364 -0.0143473 105.576 -0.000239929ZM109.209 4.84663C108.861 5.78779 107.883 6.93855 105.576 6.93855C104.874 6.93855 103.356 6.5637 102.817 6.05785C102.228 5.49745 101.86 4.74483 101.779 3.93653C101.699 3.12824 101.911 2.31783 102.377 1.65233C102.87 0.94092 104.321 0.443133 105.576 0.443133C106.831 0.443133 108.119 0.658774 108.995 1.98486C109.818 3.22429 109.507 4.05259 109.217 4.84663H109.209ZM117.592 6.71888L114.51 0.110603H112.635V7.26906H113.62V0.221447L117.039 7.27511H118.032L121.463 0.221447V7.27511H122.344V0.110603H120.801L117.592 6.71888ZM56.0494 0.110603V0.441118L58.1442 4.51612H53.9525L55.9384 0.441118V0.110603H55.3874L51.6357 7.05342V7.27309H52.6287L53.7326 4.96151H58.4751L59.686 7.27309H60.6789V7.05342L56.7093 0.110603H56.0494ZM67.5203 3.52458V3.42583C68.3922 3.23638 69.5062 2.63581 69.5062 1.77325C69.5062 0.91069 68.6727 0.122695 66.3518 0.122695C64.4488 0.122695 62.3358 0.110603 62.3358 0.110603V7.26906H66.0854C69.4799 7.26906 69.9461 5.89259 69.9461 5.17715C69.9461 4.46171 69.2438 3.69386 67.5203 3.52458ZM63.4397 0.549946H66.4164C68.1601 0.549946 68.5132 1.32182 68.5132 1.872C68.5132 2.42219 67.8412 3.19406 67.1894 3.19406H63.4397V0.549946ZM67.1894 6.71888H63.4397V3.74626H66.8584C68.2832 3.74626 68.9552 4.63906 68.9552 5.17715C68.9552 5.67695 68.5375 6.71888 67.1894 6.71888ZM96.3108 2.08361C96.0625 2.45443 95.3522 3.42583 94.6499 3.42583H93.7679V0.110603H92.775V7.26906H93.7679V3.74626H94.6499C95.6852 3.74626 97.7315 6.40046 98.2825 7.26906H99.4933C98.8455 6.36418 97.4974 4.73781 96.5146 4.07476C96.0424 3.75634 95.3441 3.6717 94.8597 3.63542C95.449 3.47822 96.6861 3.27871 97.2815 2.09369C97.8405 0.985258 97.9172 0.541885 99.7032 0.549946V0.110603C97.3743 0.0702967 97.2109 0.749464 96.3108 2.09369V2.08361ZM125.099 7.26906H125.981V0.549946H132.05V7.26906H132.932V0.110603H125.099V7.26906ZM152.455 3.19406H146.499V0.110603H145.506V7.26906H146.499V3.62736H152.455V7.25496H153.448V0.110603H152.455V3.19406ZM170.077 0.0864194C167.605 0.0864194 166.795 0.950997 166.795 1.76318C166.795 3.55279 169.072 3.85509 170.428 3.85509C169.469 4.16344 168.517 4.66122 168.006 5.17715C167.292 5.89864 166.749 6.47301 166.243 7.04939V7.26906C166.67 7.26906 167.344 7.26906 167.344 7.26906C167.344 7.26906 168.541 5.78376 169.441 4.85067C169.728 4.5524 170.676 3.85912 171.425 3.85912H173.742V7.26906H174.735V0.110603C174.735 0.110603 172.254 0.0864194 170.077 0.0864194ZM173.744 3.42583H169.994C168.725 3.42583 167.788 3.02276 167.788 1.99292C167.788 1.62009 167.788 0.560022 169.552 0.560022H173.744V3.42583ZM86.3756 0.110603V0.441118L88.4704 4.51612H84.2868L86.2727 0.441118V0.110603H85.7197L81.97 7.05342V7.27309H82.963L84.0669 4.96151H88.8094L90.0203 7.27309H91.0173V7.05342L87.0436 0.110603H86.3756ZM139.109 0.110603V0.441118L141.204 4.51612H137.012L138.998 0.441118V0.110603H138.443L134.695 7.05342V7.27309H135.688L136.792 4.96151H141.535L142.746 7.27309H143.736V7.05342L139.771 0.110603H139.109ZM156.977 6.38836V0.110603H156.202V7.26906H157.304L163.157 0.991304V7.26906H164.041V0.110603H162.83L156.977 6.38836ZM73.1468 6.38836V0.110603H72.3739V7.26906H73.4778L79.3303 0.991304V7.26906H80.2143V0.110603H79.0034L73.1468 6.38836Z" fill="#231F20"/>
<path fill-rule="evenodd" clip-rule="evenodd" d="M0 18.8354L5.95748 23.0213L207.265 22.8016L213 18.8354H0ZM12.5749 27.6485L200.756 27.318L206.492 23.3518L6.83939 23.5795L12.5749 27.6485ZM19.0833 32.1649H193.808L199.983 27.8682L13.3478 28.1987L19.0833 32.1649Z" fill="#178ACB"/>
<path fill-rule="evenodd" clip-rule="evenodd" d="M40.1606 38.5107L51.9646 46.8824H55.1613L56.4852 45.6732L58.0311 47.1061L59.5749 45.6732L55.0483 41.3745L56.4811 40.0525L58.027 41.4834L59.5709 40.0525L61.0037 41.4834L59.4599 42.8054L61.0037 44.2383L62.5476 42.8054L61.1147 41.4834L62.5476 40.0525L64.0935 41.4834L65.6373 40.0525L67.0702 41.3745L62.5476 45.5604L64.0935 47.1021L65.6373 45.6692L67.1812 47.1021L68.6161 45.78L70.1599 47.1021L71.5928 45.6692L73.1387 47.1021L74.6825 45.6692L70.2709 41.3745L71.7038 40.0525L73.1387 41.4834L74.6825 40.0525L76.1154 41.4834L74.6825 42.8054L76.2264 44.2383L77.6613 42.8054L76.2264 41.4834L77.7702 40.0525L79.2051 41.4834L80.86 40.0525L82.2928 41.3745L77.6613 45.5604L79.3161 47.1021L80.749 45.6692L82.2928 47.1021L83.7277 45.6692L85.2716 47.1021L86.8154 45.6692L88.2503 47.1021L89.9052 45.5604L85.3826 41.3745L86.8154 40.0525L88.3593 41.4834L89.7942 40.0525L91.2291 41.4834L89.7942 42.8054L91.338 44.2383L92.7729 42.8054L91.338 41.4834L92.8819 40.0525L94.3168 41.4834L95.8606 40.0525L97.2955 41.3745L92.7729 45.5604L94.3168 47.1021L95.8606 45.6692L97.2955 47.1021L98.8394 45.6692L100.383 47.1021L101.818 45.6692L103.362 47.1021L104.906 45.6692L100.502 41.4834L101.935 40.0525L103.481 41.4834L104.914 40.0525L106.349 41.4834L104.914 42.8054L106.349 44.2383L107.893 42.8054L106.458 41.4834L108.002 40.0525L109.437 41.4834L110.98 40.0525L112.409 41.3745L107.887 45.6692L109.43 47.1021L110.974 45.6692L112.409 47.1021L113.953 45.6692L115.497 47.1021L116.932 45.6692L118.476 47.1021L120.02 45.6692L115.495 41.3745L116.93 40.0525L118.474 41.4834L120.017 40.0525L121.452 41.4834L119.909 42.9263L121.452 44.2484L122.996 42.8155L121.561 41.4934L123.107 40.0625L124.54 41.4934L126.084 40.0625L127.519 41.4934L122.996 45.6793L124.54 47.1122L126.084 45.6793L127.519 47.1122L129.063 45.6793L130.498 47.1122L132.041 45.6793L133.585 47.1122L135.129 45.6793L130.718 41.4934L132.152 40.1714L133.585 41.4934L135.129 40.0625L136.564 41.4934L135.129 42.9263L136.673 44.2484L138.108 42.9263L136.673 41.4934L138.108 40.0625L139.652 41.4934L141.196 40.0625L142.63 41.4934L138.108 45.6793L139.763 47.221L141.196 45.7901L142.741 47.221L144.174 45.7901L145.718 47.221L147.264 45.7901L148.697 47.1122L150.243 45.6793L145.829 41.4834L147.264 40.1613L148.808 41.5942L150.352 40.1613L151.787 41.5942L150.35 42.9263L151.785 44.3572L153.218 42.9263L151.894 41.6043L153.218 40.1714L154.872 41.4934L156.305 40.1714L157.851 41.4934L153.328 45.6793L154.872 47.221L156.196 45.901L157.74 47.1102H160.608L172.412 38.7385L40.1606 38.5107ZM68.6161 45.6692L67.1812 44.3471L68.6161 42.9263L70.0489 44.3572L68.6161 45.6692ZM83.7277 45.5604L82.2928 44.2383L83.7277 42.9163L85.1606 44.2383L83.7277 45.5604ZM98.8394 45.5604L97.4045 44.2383L98.8394 42.8054L100.272 44.2383L98.8394 45.5604ZM113.951 45.5604L112.518 44.2383L113.951 42.9163L115.386 44.2383L113.951 45.5604ZM129.063 45.5604L127.63 44.2383L129.063 42.9163L130.498 44.2383L129.063 45.5604ZM144.174 45.6692L142.63 44.3471L144.174 43.0271L145.609 44.3471L144.174 45.6692Z" fill="#184895"/>
<path fill-rule="evenodd" clip-rule="evenodd" d="M53.6094 47.8115H159.391L158.069 48.8031H55.0422L53.6094 47.8115Z" fill="#E21E26"/>
<path fill-rule="evenodd" clip-rule="evenodd" d="M56.5312 49.8994H156.468L155.033 50.9998H58.0751L56.5312 49.8994Z" fill="#174896"/>
<path fill-rule="evenodd" clip-rule="evenodd" d="M106.317 32.3862C106.5 30.655 108.115 27.4083 108.633 26.3281C109.091 25.3749 115.142 12.8979 115.142 12.8979H105.766L93.6408 23.5792L91.2191 12.8979H81.7339C81.7339 12.8979 74.8199 28.7324 73.7906 30.8525C73.0843 32.3076 71.8391 32.757 70.158 32.8356C70.0389 33.2266 69.4961 35.5886 69.4961 35.5886H82.9529L84.1637 32.7248H82.2889L88.1414 19.0669L91.4209 30.8445L101.348 22.0314C101.348 22.0314 98.4803 29.3975 98.0383 30.8445C97.6165 32.229 96.7285 33.015 94.4057 33.0472C94.2442 33.4181 93.1948 35.5805 93.1948 35.5805H106.432C106.432 35.5805 107.11 33.6599 107.203 33.2669C106.795 33.144 106.26 32.9243 106.317 32.3862ZM171.944 32.7167C171.338 32.5515 171.308 32.1121 171.391 31.3947C171.473 30.6772 174.265 12.8979 174.265 12.8979H165.772C165.772 12.8979 154.588 23.952 147.902 30.2943C147.349 30.8183 145.444 33.0674 142.049 33.0472C141.936 33.5753 141.609 35.5805 141.609 35.5805H151.426L151.648 33.0472C151.648 33.0472 150.638 33.0311 150.544 32.6079C150.477 32.2996 150.695 32.2048 151.206 31.7252C151.795 31.171 164.442 19.1676 164.442 19.1676C164.442 19.1676 162.713 31.8642 162.899 30.4031C162.802 31.049 162.535 31.6576 162.126 32.1665C161.653 32.7349 160.832 32.7711 159.92 32.9364C159.809 33.5611 159.478 35.5805 159.478 35.5805H173.488L173.599 32.7167C173.599 32.7167 172.388 32.8376 171.944 32.7167ZM75.4314 12.8979H57.563C53.0182 12.8979 49.9769 14.4578 49.0687 16.5255C48.3079 18.2628 45.9648 24.3309 45.319 25.8888C44.6732 27.4466 45.7953 28.9682 48.7377 29.855C47.4159 30.8203 46.5541 31.4289 44.8771 32.7187H40.5745L39.5815 35.5825H51.8275L52.8184 32.9384H51.6075L53.8133 30.0746H58.7779L57.012 33.1601H55.0262L54.1443 35.5785H67.262L68.3659 32.8256H65.9442L75.4314 12.8979ZM60.0937 25.5643H55.0242C55.0242 25.5643 56.0433 22.3176 56.79 20.6086C57.3349 19.3591 58.5559 17.634 58.5559 17.634H64.0694L60.0937 25.5643ZM141.395 12.8979H132.792C132.792 12.8979 113.646 31.4652 112.938 32.0638C112.23 32.6623 111.804 32.9445 111.503 32.9445H108.855L108.082 35.5886H118.778V33.0513C118.778 33.0513 118.068 33.1077 117.895 32.8316C117.721 32.5555 118.068 32.2834 118.336 31.9489C118.959 31.2155 119.622 30.5171 120.322 29.857H129.918C129.918 29.857 129.581 30.8646 129.257 31.7292C129.028 32.3338 129.022 32.5898 128.486 32.7208C128.056 32.8256 126.831 33.0513 126.831 33.0513L126.72 35.5845H140.508C140.508 35.5845 140.471 33.5289 140.508 32.9404C139.535 32.888 138.651 32.9404 138.413 32.3902C138.175 31.8401 138.37 31.826 138.964 27.6542C139.811 21.717 141.395 12.8979 141.395 12.8979ZM130.915 25.1169H125.62L132.348 19.1676L130.915 25.1169Z" fill="white"/>
<path fill-rule="evenodd" clip-rule="evenodd" d="M107.969 26.2738C108.427 25.3205 114.147 13.3857 114.147 13.3857H105.872L93.2975 24.2907L90.7627 13.2749H82.1595C82.1595 13.2749 75.1748 28.8413 74.1456 30.9615C73.4392 32.4165 72.1557 33.2448 70.4686 33.3234C70.3495 33.7144 69.9156 35.1957 69.9156 35.1957H82.4905L83.3724 33.1038H81.4976L88.006 17.6804L91.6386 29.9074L102.228 20.5442C102.228 20.5442 98.807 29.452 98.367 30.899C97.9452 32.2835 97.0573 33.2912 94.7344 33.3174C94.573 33.6882 93.8525 35.1896 93.8525 35.1896H105.985C105.985 35.1896 106.552 33.7084 106.647 33.3174C106.244 33.1924 105.709 32.8639 105.765 32.3258C105.951 30.6007 107.453 27.352 107.969 26.2738ZM171.506 33.1038C170.9 32.9365 170.65 32.0558 170.733 31.3403C170.815 30.6249 173.711 13.2749 173.711 13.2749H165.992C165.992 13.2749 155.022 24.0065 148.344 30.3488C147.791 30.8728 145.664 33.3436 142.277 33.3234C142.162 33.8514 141.946 35.1957 141.946 35.1957H150.769L150.991 33.4323C150.991 33.4323 150.089 33.3053 149.998 32.8821C149.932 32.5757 150.039 32.0417 150.549 31.56L164.999 17.9021C164.999 17.9021 163.046 31.8563 163.231 30.3972C163.136 31.0931 162.872 31.7552 162.462 32.3258C161.99 32.8942 161.169 33.1602 160.257 33.3174C160.146 33.9421 159.926 35.1896 159.926 35.1896H172.953L173.062 33.2065C173.062 33.2065 171.943 33.2227 171.508 33.1038H171.506ZM74.5492 13.2749H57.4517C53.3045 13.2749 50.2188 14.8569 49.5084 16.58C48.788 18.3334 46.2956 24.2746 45.6498 25.8324C45.004 27.3903 46.677 28.801 49.6194 29.6878C48.2976 30.6531 46.6649 31.8119 44.9778 33.1038H40.7962L40.1343 35.1957H51.3853L52.0472 33.3234H50.6123L53.5911 29.4681H59.5465L57.2318 33.5431H55.2459L54.693 35.1957H66.8279L67.6069 33.2126H65.1852L74.5492 13.2749ZM60.3195 25.9433H54.364C54.364 25.9433 55.3731 22.2552 56.1278 20.5442C56.6727 19.2967 58.1137 17.0194 58.1137 17.0194H64.7311L60.3195 25.9433ZM140.733 13.2749H133.121C133.121 13.2749 113.545 32.0638 112.825 32.6624C112.104 33.261 111.802 33.2126 111.501 33.2126H109.18L108.629 35.1957H118.005L118.116 33.3234C118.116 33.3234 117.511 33.269 117.343 32.9929C117.176 32.7168 117.295 32.3339 117.563 32.0014C118.326 31.0562 119.985 29.3573 119.985 29.3573H130.463C130.463 29.3573 129.908 30.9937 129.581 31.8643C129.353 32.4689 128.905 32.9728 128.37 33.1038C127.94 33.2065 127.377 33.3234 127.377 33.3234L127.155 35.1957H139.855C139.855 35.1957 139.93 33.9099 139.966 33.3234C138.994 33.269 138.11 33.0977 137.87 32.5516C137.629 32.0054 137.829 31.7676 138.423 27.5959C139.26 21.6607 140.733 13.2749 140.733 13.2749ZM131.248 25.5019H124.407L133.012 17.7913L131.248 25.5019Z" fill="#E21E26"/>
</g>
<defs>
<clipPath id="clip0_400_5355">
<rect width="213" height="51" fill="white"/>
</clipPath>
</defs>
</svg>

<svg width="213" height="51" fill="none" xmlns="http://www.w3.org/2000/svg"><g clip-path="url(#clip0_400_5355)" fill-rule="evenodd" clip-rule="evenodd"><path d="M105.576 0c-1.792.014-3.721.534-4.412 2.094a3.396 3.396 0 00.44 3.627c.902 1.105 2.454 1.657 4.067 1.657a7.002 7.002 0 003.106-.768 3.44 3.44 0 001.211-4.738c-.747-1.3-2.624-1.886-4.412-1.872zm3.633 4.847c-.348.94-1.326 2.092-3.633 2.092-.702 0-2.22-.375-2.759-.881a3.395 3.395 0 01-.44-4.406c.493-.711 1.944-1.209 3.199-1.209s2.543.216 3.419 1.542c.823 1.24.512 2.068.222 2.862h-.008zm8.383 1.872L114.51.11h-1.875v7.158h.985V.221l3.419 7.054h.993l3.431-7.054v7.054h.881V.111h-1.543l-3.209 6.608zM56.049.11v.33l2.095 4.075h-4.191L55.938.441v-.33h-.55l-3.752 6.942v.22h.993l1.104-2.311h4.742l1.211 2.311h.993v-.22L56.709.111h-.66zM67.52 3.525v-.1c.872-.189 1.986-.79 1.986-1.652 0-.862-.833-1.65-3.154-1.65-1.903 0-4.016-.012-4.016-.012v7.158h3.75c3.394 0 3.86-1.376 3.86-2.092 0-.715-.702-1.483-2.426-1.652zM63.44.55h2.976c1.744 0 2.097.772 2.097 1.322s-.672 1.322-1.324 1.322h-3.75V.55zm3.75 6.169h-3.75V3.746h3.418c1.425 0 2.097.893 2.097 1.431 0 .5-.418 1.542-1.766 1.542zm29.12-4.635c-.248.37-.958 1.342-1.66 1.342h-.882V.11h-.993v7.158h.993V3.746h.882c1.035 0 3.081 2.654 3.632 3.523h1.211c-.647-.905-1.996-2.531-2.978-3.194-.473-.319-1.17-.403-1.655-.44.589-.157 1.826-.356 2.421-1.541.56-1.109.636-1.552 2.422-1.544V.11c-2.329-.04-2.492.64-3.392 1.984v-.01zm28.79 5.185h.882V.55h6.069v6.72h.882V.111H125.1v7.158zm27.356-4.075H146.5V.111h-.993v7.158h.993V3.627h5.956v3.628h.993V.111h-.993v3.083zM170.077.086c-2.472 0-3.282.865-3.282 1.677 0 1.79 2.277 2.092 3.633 2.092-.959.308-1.911.806-2.422 1.322a42.222 42.222 0 00-1.763 1.872v.22h1.101s1.197-1.485 2.097-2.418c.287-.299 1.235-.992 1.984-.992h2.317v3.41h.993V.111s-2.481-.025-4.658-.025zm3.667 3.34h-3.75c-1.269 0-2.206-.403-2.206-1.433 0-.373 0-1.433 1.764-1.433h4.192v2.866zM86.376.11v.33l2.094 4.075h-4.183L86.273.441v-.33h-.553l-3.75 6.942v.22h.993l1.104-2.311h4.742l1.211 2.311h.997v-.22L87.044.111h-.668zm52.733 0v.33l2.095 4.075h-4.192L138.998.44V.11h-.555l-3.748 6.942v.22h.993l1.104-2.311h4.743l1.211 2.311h.99v-.22L139.771.111h-.662zm17.868 6.277V.111h-.775v7.158h1.102l5.853-6.278V7.27h.884V.111h-1.211l-5.853 6.277zm-83.83 0V.111h-.773v7.158h1.104L79.33.991V7.27h.884V.111h-1.21l-5.857 6.277z" fill="#231F20"/><path d="M0 18.835l5.957 4.186 201.308-.22L213 18.836H0zm12.575 8.813l188.181-.33 5.736-3.966-199.653.227 5.736 4.07zm6.508 4.517h174.725l6.175-4.297-186.635.33 5.735 3.967z" fill="#178ACB"/><path d="M40.16 38.51l11.805 8.372h3.196l1.324-1.209 1.546 1.433 1.544-1.433-4.527-4.299 1.433-1.322 1.546 1.431 1.544-1.43 1.433 1.43-1.544 1.322 1.544 1.433 1.544-1.433-1.433-1.322 1.433-1.43 1.546 1.43 1.543-1.43 1.433 1.322-4.522 4.185 1.546 1.542 1.543-1.433 1.544 1.433 1.435-1.322 1.544 1.322 1.433-1.433 1.546 1.433 1.544-1.433-4.412-4.294 1.433-1.322 1.435 1.43 1.544-1.43 1.432 1.43-1.432 1.322 1.543 1.433 1.435-1.433-1.435-1.322 1.544-1.43 1.435 1.43 1.655-1.43 1.433 1.322-4.632 4.185 1.655 1.542 1.433-1.433 1.544 1.433 1.435-1.433 1.544 1.433 1.543-1.433 1.435 1.433 1.655-1.542-4.522-4.186 1.432-1.322 1.544 1.431 1.435-1.43 1.435 1.43-1.435 1.322 1.544 1.433 1.435-1.433-1.435-1.322 1.544-1.43 1.435 1.43 1.544-1.43 1.434 1.322-4.522 4.185 1.544 1.542 1.544-1.433 1.434 1.433 1.544-1.433 1.544 1.433 1.435-1.433 1.544 1.433 1.544-1.433-4.404-4.186 1.433-1.43 1.546 1.43 1.433-1.43 1.435 1.43-1.435 1.322 1.435 1.433 1.544-1.433-1.435-1.322 1.544-1.43 1.435 1.43 1.543-1.43 1.429 1.322-4.522 4.294 1.543 1.433 1.544-1.433 1.435 1.433 1.544-1.433 1.544 1.433 1.435-1.433 1.544 1.433 1.544-1.433-4.525-4.294 1.435-1.322 1.544 1.43 1.543-1.43 1.435 1.43-1.543 1.443 1.543 1.322 1.544-1.432-1.435-1.323 1.546-1.43 1.433 1.43 1.544-1.43 1.435 1.43-4.523 4.186 1.544 1.433 1.544-1.433 1.435 1.433 1.544-1.433 1.435 1.433 1.543-1.433 1.544 1.433 1.544-1.433-4.411-4.186 1.434-1.322 1.433 1.322 1.544-1.43 1.435 1.43-1.435 1.433 1.544 1.322 1.435-1.322-1.435-1.433 1.435-1.43 1.544 1.43 1.544-1.43 1.434 1.43-4.522 4.186 1.655 1.542 1.433-1.43 1.545 1.43 1.433-1.43 1.544 1.43 1.546-1.43 1.433 1.321 1.546-1.433-4.414-4.196 1.435-1.322 1.544 1.433 1.544-1.433 1.435 1.433-1.437 1.332 1.435 1.431 1.433-1.43-1.324-1.323 1.324-1.433 1.654 1.322 1.433-1.322 1.546 1.322-4.523 4.186 1.544 1.542 1.324-1.32 1.544 1.21h2.868l11.804-8.372-132.251-.228zm28.456 7.16l-1.435-1.323 1.435-1.42 1.433 1.43-1.433 1.312zm15.112-.11l-1.435-1.322 1.435-1.322 1.433 1.322-1.433 1.322zm15.111 0l-1.434-1.322 1.434-1.433 1.433 1.433-1.433 1.322zm15.112 0l-1.433-1.322 1.433-1.322 1.435 1.322-1.435 1.322zm15.112 0l-1.433-1.322 1.433-1.322 1.435 1.322-1.435 1.322zm15.111.11l-1.544-1.323 1.544-1.32 1.435 1.32-1.435 1.322z" fill="#184895"/><path d="M53.61 47.812h105.78l-1.322.991H55.042l-1.433-.991z" fill="#E21E26"/><path d="M56.531 49.9h99.937l-1.435 1.1H58.075l-1.544-1.1z" fill="#174896"/><path d="M106.317 32.386c.183-1.731 1.798-4.978 2.316-6.058.458-.953 6.509-13.43 6.509-13.43h-9.376L93.641 23.579l-2.422-10.681h-9.485S74.82 28.732 73.79 30.852c-.707 1.456-1.952 1.905-3.633 1.984-.12.39-.662 2.753-.662 2.753h13.457l1.21-2.864H82.29l5.852-13.658 3.28 11.777 9.927-8.813s-2.868 7.367-3.31 8.814c-.421 1.384-1.31 2.17-3.632 2.202-.162.371-1.211 2.534-1.211 2.534h13.237s.678-1.921.771-2.314c-.408-.123-.943-.343-.886-.88zm65.627.33c-.606-.165-.636-.604-.553-1.321.082-.718 2.874-18.497 2.874-18.497h-8.493s-11.184 11.054-17.87 17.396c-.553.524-2.458 2.773-5.853 2.753-.113.528-.44 2.534-.44 2.534h9.817l.222-2.534s-1.01-.016-1.104-.44c-.067-.307.151-.402.662-.882.589-.554 13.236-12.557 13.236-12.557s-1.729 12.696-1.543 11.235a3.69 3.69 0 01-.773 1.764c-.473.568-1.294.604-2.206.77-.111.624-.442 2.644-.442 2.644h14.01l.111-2.864s-1.211.12-1.655 0zM75.431 12.899H57.563c-4.545 0-7.586 1.56-8.494 3.628-.761 1.737-3.104 7.805-3.75 9.363-.646 1.558.476 3.08 3.419 3.966-1.322.965-2.184 1.574-3.86 2.864h-4.303l-.994 2.864h12.246l.991-2.645h-1.21l2.205-2.863h4.965l-1.766 3.085h-1.986l-.882 2.419h13.118l1.104-2.753h-2.422l9.487-19.928zM60.094 25.564h-5.07s1.02-3.246 1.766-4.955c.545-1.25 1.766-2.975 1.766-2.975h5.513l-3.975 7.93zm81.301-12.666h-8.603s-19.146 18.567-19.854 19.166c-.708.598-1.134.88-1.435.88h-2.648l-.773 2.645h10.696V33.05s-.71.057-.883-.22c-.174-.276.173-.548.441-.882a26.108 26.108 0 011.986-2.092h9.596s-.337 1.008-.661 1.872c-.229.605-.235.86-.771.992-.43.105-1.655.33-1.655.33l-.111 2.533h13.788s-.037-2.055 0-2.644c-.973-.052-1.857 0-2.095-.55-.238-.55-.043-.564.551-4.736.847-5.937 2.431-14.756 2.431-14.756zm-10.48 12.219h-5.295l6.728-5.95-1.433 5.95z" fill="#fff"/><path d="M107.969 26.274l6.178-12.888h-8.275L93.297 24.29l-2.534-11.016h-8.604S75.175 28.84 74.146 30.96c-.707 1.456-1.99 2.284-3.677 2.362-.12.391-.553 1.873-.553 1.873H82.49l.881-2.092h-1.874l6.508-15.424 3.633 12.227 10.589-9.363s-3.421 8.908-3.861 10.355c-.422 1.384-1.31 2.392-3.633 2.418a114.34 114.34 0 01-.881 1.873h12.132s.567-1.482.662-1.873c-.403-.125-.938-.453-.882-.991.186-1.725 1.688-4.974 2.204-6.052zm63.537 6.83c-.606-.167-.856-1.048-.773-1.764.082-.715 2.978-18.065 2.978-18.065h-7.719s-10.97 10.731-17.648 17.074c-.553.524-2.68 2.995-6.067 2.974-.115.528-.331 1.873-.331 1.873h8.823l.222-1.764s-.902-.127-.993-.55c-.066-.306.041-.84.551-1.322l14.45-13.658s-1.953 13.954-1.768 12.495a4.302 4.302 0 01-.769 1.929c-.472.568-1.293.834-2.205.991l-.331 1.873h13.027l.109-1.983s-1.119.016-1.554-.103h-.002zm-96.957-19.83H57.452c-4.148 0-7.233 1.583-7.944 3.306-.72 1.753-3.212 7.695-3.858 9.252-.646 1.558 1.027 2.969 3.97 3.856-1.322.965-2.955 2.124-4.642 3.416h-4.182l-.662 2.092h11.251l.662-1.873h-1.435l2.98-3.855h5.955l-2.315 4.075h-1.986l-.553 1.653h12.135l.779-1.983h-2.422l9.364-19.938zm-14.23 12.67h-5.955s1.01-3.689 1.764-5.4c.545-1.247 1.986-3.525 1.986-3.525h6.617l-4.411 8.924zm80.414-12.67h-7.612s-19.576 18.79-20.296 19.388c-.721.599-1.023.55-1.324.55h-2.321l-.551 1.984h9.376l.111-1.873s-.605-.054-.773-.33c-.167-.276-.048-.66.22-.992.763-.945 2.422-2.644 2.422-2.644h10.478s-.555 1.637-.882 2.507c-.228.605-.676 1.109-1.211 1.24-.43.102-.993.22-.993.22l-.222 1.872h12.7s.075-1.286.111-1.873c-.972-.054-1.856-.225-2.096-.771-.241-.547-.041-.784.553-4.956.837-5.935 2.31-14.321 2.31-14.321zm-9.485 12.228h-6.841l8.605-7.71-1.764 7.71z" fill="#E21E26"/></g><defs><clipPath id="clip0_400_5355"><path fill="#fff" d="M0 0h213v51H0z"/></clipPath></defs></svg>
